X:1
T:Title
%%score { 1 | 2 }
L:1/8
M:4/4
K:Bb
V:1 treble nm="Grand Piano"
V:2 bass 
V:1
 z4 z2[Q:1/4=100] [DB]>[Ec] | [Fd]2 [Fd]2 [Ec]2 [DB]2 | [GB]4 G2 G>G | [DF]2 [DB]2 [Fd]2 [DB]2 | %4
 [Fc]6 [DB]>[Ec] | [Fd]2 [Fd]2 [Ec]2 [DB]2 | [GB]4 G2 G>G | F2 B2 d3 c |[M:3/4] [DB]6 | %9
[M:1/4] [Fd]>[Fd] |[M:4/4] [Fd]2 [Fd]2 d3 c | B6 [DF]>[DF] | [DB]2 c2 d3 B | c6 c>c | %14
 [Fd]2 [Fd]2 [Fc]2 [FB]2 | [GB]4 G2 G>G | F2 B2 d3 c |[M:3/4] [DB]6 |] %18
V:2
 z4 z2 [B,,B,]>[B,,B,] | [B,,B,]2 [B,,B,]2 [B,,B,]2 [B,,B,]2 | [E,B,]4 [E,B,E]2 [E,B,E]>[E,B,E] | %3
 [B,,B,]2 [B,,B,]2 [B,,B,]2 [B,,B,]2 | [F,A,]6 [B,,B,]>[B,,B,] | %5
 [B,,B,]2 [B,,B,]2 [B,,B,]2 [B,,B,]2 | [E,B,]4 [E,B,E]2 [E,B,E]>[E,B,E] | %7
 [F,B,D]2 [F,B,D]2 [F,A,F]3 [F,A,E] |[M:3/4] [B,,B,]6 |[M:1/4] [B,,B,]>[B,,B,] | %10
[M:4/4] [B,,B,]2 [B,,B,]2 [F,A,F]3 [F,A,E] | [B,D]6 [B,,B,]>[B,,B,] | %12
 [B,,B,]2[K:treble] [F,A,F]2 [B,F]3 [B,D] | [F,A,F]6 [F,A,F]>[K:bass][F,A,F] | %14
 [B,,B,]2 [B,,B,]2 [C,A,]2 [D,B,]2 | [F,B,]4 [E,B,E]2 [E,B,E]>[E,B,E] | %16
 [F,B,D]2 [F,B,D]2 [F,A,F]3 [F,A,E] |[M:3/4] [B,,B,]6 |] %18

